epam-assets/icon-sources/18/consent.svg

<svg width="18" height="18" viewBox="0 0 18 18" fill="none" xmlns="http://www.w3.org/2000/svg">
<g id="18/consent">
<g id="icon">
<path d="M13.3822 13.8792C13.8209 13.4471 14.2594 13.0141 14.6987 12.5802C14.7168 12.5624 14.7349 12.5446 14.753 12.5268C14.7497 12.5223 14.7451 12.5167 14.7394 12.5101C14.6717 12.431 14.4476 12.2093 14.3123 12.0865C14.2676 12.0454 14.233 12.0153 14.2178 12.0051L14.2168 12.0061L14.2151 12.005C13.9275 12.2881 13.6398 12.5719 13.3515 12.8562L13.3433 12.8644C13.0569 13.1469 12.7699 13.43 12.4816 13.7137C12.3847 13.6172 12.2879 13.52 12.1907 13.4225C12.0912 13.3226 11.9914 13.2224 11.8909 13.1222L11.8896 13.1235L11.8882 13.1221C11.8183 13.1918 11.7492 13.2598 11.6809 13.3268C11.5674 13.4384 11.456 13.5478 11.3478 13.659C11.5392 13.8486 11.7292 14.0356 11.9172 14.2207C12.1053 14.4058 12.2915 14.5891 12.4751 14.771L12.4764 14.7697L12.4778 14.7711C12.7792 14.4745 13.0806 14.177 13.3822 13.8792Z" fill="#6C6F80"/>
<path fill-rule="evenodd" clip-rule="evenodd" d="M3 2.12988C3 1.29738 3.6675 0.629883 4.5 0.629883H10.5L15 5.12988V10.2972L15.0037 10.2977C15.0942 10.3104 15.1847 10.3143 15.2752 10.3182L15.3294 10.3206C15.4607 10.3258 15.5912 10.3296 15.7225 10.3335C15.8498 10.3373 15.9778 10.3411 16.1077 10.3461L16.1085 10.3495C16.1113 10.36 16.1154 10.3759 16.1154 10.3919C16.1154 11.4988 16.1154 12.6057 16.1128 13.7126C16.1128 13.9594 16.0508 14.1935 15.968 14.4251C15.8465 14.7711 15.663 15.0867 15.4406 15.3818C15.2984 15.5701 15.1433 15.7483 14.9778 15.9187C14.5822 16.3284 14.1401 16.6796 13.6566 16.9824C13.4524 17.1096 13.243 17.2241 13.018 17.3157C12.9069 17.3615 12.806 17.3615 12.6948 17.3157C12.488 17.2292 12.2889 17.1249 12.0976 17.0078C11.8494 16.8577 11.6167 16.6898 11.3892 16.5142C11.2082 16.3717 11.0376 16.2165 10.8721 16.0561C10.7315 15.9204 10.5972 15.7786 10.4712 15.6299H4.5C3.67157 15.6299 3 14.9583 3 14.1299V2.12988ZM9.75 1.75488V5.87988H13.875L9.75 1.75488ZM12.8532 10.2752C12.6591 10.4015 12.4595 10.5067 12.2527 10.5946C12.1728 10.6288 12.0919 10.6605 12.0097 10.6896C11.6865 10.8041 11.3556 10.8855 11.0143 10.9339L10.9581 10.9415C10.8057 10.9621 10.6514 10.983 10.4972 10.9898C10.4578 10.9914 10.4165 10.9967 10.3726 11.0024C10.3446 11.006 10.3155 11.0098 10.2852 11.0127C10.2852 11.0483 10.2852 11.0788 10.2904 11.1017V13.5547C10.2904 13.6022 10.2954 13.6487 10.3004 13.6954C10.3035 13.7238 10.3065 13.7523 10.3085 13.7812C10.3266 14.0051 10.4016 14.2138 10.4946 14.4148C10.6575 14.7659 10.885 15.0713 11.1488 15.3512C11.354 15.5686 11.6058 15.8227 11.9114 16.0511C12.1881 16.2597 12.4751 16.4531 12.7828 16.6109C12.8422 16.6414 12.8862 16.6389 12.943 16.6083C13.3929 16.3768 13.8014 16.0841 14.1763 15.7483C14.3987 15.5498 14.6081 15.3386 14.7942 15.1045C14.9959 14.8526 15.1717 14.5828 15.2907 14.2826C15.3786 14.0637 15.4354 13.8373 15.4354 13.6006C15.4372 13.0411 15.4366 12.4817 15.436 11.9222V11.9212C15.4357 11.6413 15.4354 11.3614 15.4354 11.0815C15.4354 11.0582 15.4333 11.037 15.4309 11.014L15.4303 11.0077C15.3555 11.0008 15.2818 10.9944 15.2087 10.9881C15.12 10.9804 15.0321 10.9728 14.9442 10.9644L14.8775 10.957C14.7886 10.9472 14.6996 10.9374 14.6107 10.9211C14.3961 10.8804 14.1841 10.8372 13.9747 10.7761C13.6541 10.6819 13.3464 10.5573 13.0568 10.3919C12.9872 10.3513 12.9202 10.3132 12.8532 10.2752Z" fill="#6C6F80"/>
</g>
</g>
</svg>

<svg xmlns="http://www.w3.org/2000/svg" width="18" height="18" fill="none" viewBox="0 0 18 18">
  <path fill="#6C6F80" d="m13.382 13.88 1.317-1.3.054-.053a7.21 7.21 0 0 0-.535-.522l-.001.001-.002-.001-.864.851-.008.008-.861.85-.291-.292-.3-.3-.001.002-.002-.002-.207.205c-.114.111-.225.22-.333.332.191.19.381.377.57.562l.557.55.001-.001.002.001.904-.892Z"/>
  <path fill="#6C6F80" fill-rule="evenodd" d="M3 2.13c0-.833.667-1.5 1.5-1.5h6l4.5 4.5v5.167h.004c.09.013.18.017.271.021l.054.003.393.013.386.012v.004c.003.01.007.026.007.042 0 1.107 0 2.214-.002 3.32 0 .247-.062.482-.145.713a3.544 3.544 0 0 1-.527.957 5.715 5.715 0 0 1-.463.537c-.396.41-.838.76-1.321 1.063a4.208 4.208 0 0 1-.639.334.397.397 0 0 1-.323 0 4.394 4.394 0 0 1-.597-.308 6.723 6.723 0 0 1-1.226-.952 5.844 5.844 0 0 1-.4-.426H4.5a1.5 1.5 0 0 1-1.5-1.5v-12Zm6.75-.375V5.88h4.125L9.75 1.755Zm3.103 8.52a3.875 3.875 0 0 1-.843.415 5.124 5.124 0 0 1-.996.244l-.056.008c-.152.02-.307.041-.46.048-.04.001-.082.007-.125.012a1.124 1.124 0 0 1-.088.01c0 .036 0 .067.005.09v2.453c0 .047.005.094.01.14l.008.086c.019.224.094.433.187.634.163.35.39.656.654.936a6.021 6.021 0 0 0 1.634 1.26c.06.03.103.028.16-.003a5.89 5.89 0 0 0 1.233-.86 5.23 5.23 0 0 0 .618-.643c.202-.252.378-.522.497-.822.088-.22.144-.446.144-.682.002-.56.002-1.12.001-1.679v-.84a.632.632 0 0 0-.005-.068v-.006a36.831 36.831 0 0 0-.222-.02c-.089-.008-.177-.015-.265-.024l-.067-.007c-.088-.01-.177-.02-.266-.036a6.744 6.744 0 0 1-.636-.145 4.265 4.265 0 0 1-.918-.384l-.204-.117Z" clip-rule="evenodd"/>
</svg>
